icon-themes/HighContrast-SVG/scalable/actions/document-save-as.svg

<?xml version="1.0" encoding="UTF-8" standalone="no"?>
<!-- Generator: Adobe Illustrator 9.0, SVG Export Plug-In  -->
<svg
   xmlns:dc="http://purl.org/dc/elements/1.1/"
   xmlns:cc="http://creativecommons.org/ns#"
   xmlns:rdf="http://www.w3.org/1999/02/22-rdf-syntax-ns#"
   xmlns:svg="http://www.w3.org/2000/svg"
   xmlns="http://www.w3.org/2000/svg"
   xmlns:sodipodi="http://sodipodi.sourceforge.net/DTD/sodipodi-0.dtd"
   xmlns:inkscape="http://www.inkscape.org/namespaces/inkscape"
   width="48pt"
   height="48pt"
   viewBox="0 0 48 48"
   xml:space="preserve"
   id="svg2"
   sodipodi:version="0.32"
   inkscape:version="0.46"
   sodipodi:docname="document-save-as.svg"
   inkscape:output_extension="org.inkscape.output.svg.inkscape"><metadata
   id="metadata37"><rdf:RDF><cc:Work
       rdf:about=""><dc:format>image/svg+xml</dc:format><dc:type
         rdf:resource="http://purl.org/dc/dcmitype/StillImage" /></cc:Work></rdf:RDF></metadata><defs
   id="defs35" /><sodipodi:namedview
   inkscape:window-height="480"
   inkscape:window-width="640"
   inkscape:pageshadow="2"
   inkscape:pageopacity="0.0"
   guidetolerance="10.0"
   gridtolerance="10.0"
   objecttolerance="10.0"
   borderopacity="1.0"
   bordercolor="#666666"
   pagecolor="#ffffff"
   id="base" />
	<g
   id="Layer_x0020_4"
   style="fill-rule:nonzero;clip-rule:nonzero;stroke:#000000;stroke-miterlimit:4;">
		<g
   style="stroke:none;"
   id="g5">
			<path
   style="fill:none;stroke:#FFFFFF;stroke-width:12.3375;stroke-linecap:round;stroke-linejoin:round;"
   d="M37.3,37H11.7l-3.5-3.5V9.4h29.2V37z"
   id="path7" />
			<path
   style="fill:none;stroke:#000000;stroke-width:6.1688;stroke-linecap:round;stroke-linejoin:round;"
   d="M37.3,37H11.7l-3.5-3.5V9.4h29.2V37z"
   id="path9" />
			<path
   d="M37.3,37H11.7l-3.5-3.5V9.4h29.2V37z"
   id="path11" />
			<path
   style="fill:#FFFFFF;stroke:#000000;stroke-width:1.5422;"
   d="M31,37.2c0,1-0.8,1.9-1.9,1.9H13.4c-1,0-1.9-0.8-1.9-1.9v-10c0-1,0.8-1.9,1.9-1.9h15.7c1,0,1.9,0.8,1.9,1.9v10z"
   id="path13" />
			<path
   d="M20.6,36.4h-5.7V28h5.7v8.4z"
   id="path15" />
			<path
   style="fill:#FFFFFF;stroke:#000000;stroke-width:1.5422;"
   d="M35.6,22.9H10.2V7.8h25.4v15.2z"
   id="path17" />
			<path
   style="fill:none;stroke:#FFFFFF;stroke-width:12.3375;stroke-linejoin:round;"
   d="M39.9,33.6l-17-17l-9.6-3.8l3.4,10.8l16.5,16.6l6.7-6.7z"
   id="path19" />
			<path
   style="fill:none;stroke:#000000;stroke-width:6.1688;stroke-linejoin:round;"
   d="M39.9,33.6l-17-17l-9.6-3.8l3.4,10.8l16.5,16.6l6.7-6.7z"
   id="path21" />
			<path
   d="M39.9,33.6l-17-17l-9.6-3.8l3.4,10.8l16.5,16.6l6.7-6.7z"
   id="path23" />
			<path
   d="M17.4,14.1l-3.1,3.1l-1.4-4.7l4.5,1.7z"
   id="path25" />
			<path
   style="fill:none;stroke:#000000;stroke-width:1.5422;"
   d="M16.2,23.4l3.8-0.3l3-3l0.4-3.5"
   id="path27" />
			<path
   style="fill:#FFFFFF;"
   d="M17.2,14.3l-2.6,2.6l2,6.5l3.3-0.3l3-3l0.4-3l-6.2-2.7z"
   id="path29" />
		</g>
	</g>
	<g
   id="crop_x0020_marks"
   style="fill-rule:nonzero;clip-rule:nonzero;stroke:#000000;stroke-miterlimit:4;">
		<path
   style="fill:none;stroke:none;"
   d="M48,48H0V0h48v48z"
   id="path32" />
	</g>
</svg>

<?xml version="1.0" encoding="UTF-8" standalone="no"?>
<!-- Generator: Adobe Illustrator 9.0, SVG Export Plug-In  -->
<svg
   xmlns:dc="http://purl.org/dc/elements/1.1/"
   xmlns:cc="http://creativecommons.org/ns#"
   xmlns:rdf="http://www.w3.org/1999/02/22-rdf-syntax-ns#"
   xmlns:svg="http://www.w3.org/2000/svg"
   xmlns="http://www.w3.org/2000/svg"
   xmlns:sodipodi="http://sodipodi.sourceforge.net/DTD/sodipodi-0.dtd"
   xmlns:inkscape="http://www.inkscape.org/namespaces/inkscape"
   width="48"
   height="48"
   viewBox="0 0 48 48"
   xml:space="preserve"
   id="svg2"
   sodipodi:version="0.32"
   inkscape:version="0.46"
   sodipodi:docname="document-save-as.svg"
   inkscape:output_extension="org.inkscape.output.svg.inkscape"
   version="1.0"><metadata
   id="metadata37"><rdf:RDF><cc:Work
       rdf:about=""><dc:format>image/svg+xml</dc:format><dc:type
         rdf:resource="http://purl.org/dc/dcmitype/StillImage" /></cc:Work></rdf:RDF></metadata><defs
   id="defs35"><inkscape:perspective
     sodipodi:type="inkscape:persp3d"
     inkscape:vp_x="0 : 30 : 1"
     inkscape:vp_y="0 : 1000 : 0"
     inkscape:vp_z="60 : 30 : 1"
     inkscape:persp3d-origin="30 : 20 : 1"
     id="perspective22" /></defs><sodipodi:namedview
   inkscape:window-height="554"
   inkscape:window-width="1024"
   inkscape:pageshadow="2"
   inkscape:pageopacity="0.0"
   guidetolerance="10.0"
   gridtolerance="10.0"
   objecttolerance="10.0"
   borderopacity="1.0"
   bordercolor="#666666"
   pagecolor="#ffffff"
   id="base"
   showgrid="true"
   inkscape:object-paths="true"
   inkscape:object-nodes="true"
   inkscape:zoom="8.2333333"
   inkscape:cx="31.882591"
   inkscape:cy="25.1417"
   inkscape:window-x="0"
   inkscape:window-y="25"
   inkscape:current-layer="svg2"><inkscape:grid
     type="xygrid"
     id="grid2395"
     visible="true"
     enabled="true" /></sodipodi:namedview>
	<g
   id="Layer_x0020_4"
   style="fill-rule:nonzero;stroke:#000000;stroke-miterlimit:4">
		<g
   style="stroke:none"
   id="g5">
			<path
   style="fill:none;stroke:#ffffff;stroke-width:12.33749962;stroke-linecap:round;stroke-linejoin:round"
   d="M 37.3,37 L 11.7,37 L 8.2,33.5 L 8.2,9.4 L 37.4,9.4 L 37.4,37 L 37.3,37 z"
   id="path7" />
			<path
   style="fill:none;stroke:#000000;stroke-width:6.16879988;stroke-linecap:round;stroke-linejoin:round"
   d="M 37.3,37 L 11.7,37 L 8.2,33.5 L 8.2,9.4 L 37.4,9.4 L 37.4,37 L 37.3,37 z"
   id="path9" />
			<path
   d="M 37.3,37 L 11.7,37 L 8.2,33.5 L 8.2,9.4 L 37.4,9.4 L 37.4,37 L 37.3,37 z"
   id="path11" />
			<path
   style="fill:#ffffff;stroke:#000000;stroke-width:1.54219997"
   d="M 31,37.2 C 31,38.2 30.2,39.1 29.1,39.1 L 13.4,39.1 C 12.4,39.1 11.5,38.3 11.5,37.2 L 11.5,27.2 C 11.5,26.2 12.3,25.3 13.4,25.3 L 29.1,25.3 C 30.1,25.3 31,26.1 31,27.2 L 31,37.2 z"
   id="path13" />
			<path
   d="M 20.6,36.4 L 14.9,36.4 L 14.9,28 L 20.6,28 L 20.6,36.4 z"
   id="path15" />
			<path
   style="fill:#ffffff;stroke:#000000;stroke-width:1.54219997"
   d="M 35.6,22.9 L 10.2,22.9 L 10.2,7.8 L 35.6,7.8 L 35.6,23 L 35.6,22.9 z"
   id="path17" />
			<path
   style="fill:none;stroke:#ffffff;stroke-width:12.33749962;stroke-linejoin:round"
   d="M 39.9,33.6 L 22.9,16.6 L 13.3,12.8 L 16.7,23.6 L 33.2,40.2 L 39.9,33.5 L 39.9,33.6 z"
   id="path19" />
			<path
   style="fill:none;stroke:#000000;stroke-width:6.16879988;stroke-linejoin:round"
   d="M 39.9,33.6 L 22.9,16.6 L 13.3,12.8 L 16.7,23.6 L 33.2,40.2 L 39.9,33.5 L 39.9,33.6 z"
   id="path21" />
			<path
   d="M 39.9,33.6 L 22.9,16.6 L 13.3,12.8 L 16.7,23.6 L 33.2,40.2 L 39.9,33.5 L 39.9,33.6 z"
   id="path23" />
			<path
   d="M 17.4,14.1 L 14.3,17.2 L 12.9,12.5 L 17.4,14.2 L 17.4,14.1 z"
   id="path25" />
			<path
   style="fill:none;stroke:#000000;stroke-width:1.54219997"
   d="M 16.2,23.4 L 20,23.1 L 23,20.1 L 23.4,16.6"
   id="path27" />
			<path
   style="fill:#ffffff"
   d="M 17.2,14.3 L 14.6,16.9 L 16.6,23.4 L 19.9,23.1 L 22.9,20.1 L 23.3,17.1 L 17.1,14.4 L 17.2,14.3 z"
   id="path29" />
		</g>
	</g>
	<g
   id="crop_x0020_marks"
   style="fill-rule:nonzero;stroke:#000000;stroke-miterlimit:4">
		<path
   style="fill:none;stroke:none"
   d="M 48,48 L 0,48 L 0,0 L 48,0 L 48,48 z"
   id="path32" />
	</g>
</svg>
